X:1
T: The Clock in the Steeple
C:
R:Reel
Q: 232
K:A
M:4/4
L:1/8
|:g|a2 ec de fg|af ec dB Bg|a2 ec de fg|af ec ((3AAA) Ag|
a2 ec de fg|af ec dB Bc|Ac ((3efg) ab af|1ec Bd cA Ag:|2ec Bd cA AB|
|:c2 cA d2 dB|ef ec dB Bd|c2 cA de fg|af ed cA AB|
c2 cA d2 dB|ef ec dB Bd|Ac ((3efg) ab af|1ec Bd cA AB:|2ec Bd cA A||
